X: 28343
T: Muiñeira Das Zocas
R: jig
M: 6/8
K: Dmajor
FED|:A2A FED|A2A FED|EFG GFE|FED FED|
A2A FED|A2A FED|EFG GFE|1 D3 FED:|2 D3 F2G||
|:ABc dcB|AFA dcB|AEF GAB|B2A F2G|
ABc dcB|AFA dcB|AEF GFE|1 D3 F2G:|2 D3||

